public/icons/icon/unlock-small.svg

<svg width="30" height="30" viewBox="0 0 30 30" fill="none" xmlns="http://www.w3.org/2000/svg">
<path d="M10 15.4615C10 14.9093 10.4477 14.4615 11 14.4615H19.7692C20.3215 14.4615 20.7692 14.9093 20.7692 15.4615V21C20.7692 21.5523 20.3215 22 19.7692 22H11C10.4477 22 10 21.5523 10 21V15.4615Z" stroke="black" stroke-width="2" stroke-linejoin="round"/>
<path d="M18.6155 14.4615V11.3772C18.6155 9.29853 17.4619 8 15.3832 8C14.2417 8 13.3801 8.3742 12.8353 9.07691C12.3878 9.65398 12.1539 10.4368 12.1539 11.3743" stroke="black" stroke-width="2"/>
</svg>

<svg xmlns="http://www.w3.org/2000/svg" width="30" height="30" fill="none"><path stroke="#000" stroke-linejoin="round" stroke-width="2" d="M10 15.461a1 1 0 0 1 1-1h8.77a1 1 0 0 1 1 1V21a1 1 0 0 1-1 1H11a1 1 0 0 1-1-1v-5.539Z"/><path stroke="#000" stroke-width="2" d="M18.616 14.461v-3.084C18.616 9.3 17.462 8 15.383 8c-1.141 0-2.003.374-2.548 1.077-.447.577-.681 1.36-.681 2.297"/></svg>
